public/images/logo-medium.svg

<svg fill="none" height="54" viewBox="0 0 279 54" width="279" xmlns="http://www.w3.org/2000/svg" xmlns:xlink="http://www.w3.org/1999/xlink"><filter id="a" color-interpolation-filters="sRGB" filterUnits="userSpaceOnUse" height="53.3333" width="53.3333" x="-.000163" y="-0"><feFlood flood-opacity="0" result="BackgroundImageFix"/><feColorMatrix in="SourceAlpha" result="hardAlpha" type="matrix" values="0 0 0 0 0 0 0 0 0 0 0 0 0 0 0 0 0 0 127 0"/><feOffset dy="2.66667"/><feGaussianBlur stdDeviation="5.33333"/><feComposite in2="hardAlpha" operator="out"/><feColorMatrix type="matrix" values="0 0 0 0 1 0 0 0 0 0.619006 0 0 0 0 0.348077 0 0 0 0.2 0"/><feBlend in2="BackgroundImageFix" mode="normal" result="effect1_dropShadow_13460_64256"/><feBlend in="SourceGraphic" in2="effect1_dropShadow_13460_64256" mode="normal" result="shape"/></filter><g filter="url(#a)"><rect fill="#ff8442" height="32" rx="8" width="32" x="10.6665" y="8"/><path d="m30.8718 20.0769h-.4286c-.5714 0-1.1428.0513-1.7143.1795-.5714.1539-.9523.4103-1.0952.7693-.0476.1025-.0476.2051-.0476.3077 0 .3589.2857.6666.7143.9487.3333.2051.7619.4102 1.1428.6154.6667.4102 2.3334.6923 3.0476 1.0512.7619.359 1.4286.7436 2.1429 1.1282.7143.4103 1.0476.9231 1.2857 1.4359.1905.4103.2857.7949.2857 1.2052 0 .2564-.0476.5384-.1428.7948-.0953.6411-.6191 1.1795-1 1.718-.2857.3333-.7143.6154-1.0477.9487-.0952.1282-.3333.2308-.5238.359-.4762.282-1 .5384-1.619.7436-.0476.0256-.1429.0513-.2381.0769-1.8095.4615-3.6667.7949-6.2857.9231-.5714.0256-1.4762.0513-2.1429.0513h-.2857c-1.1905 0-1.3483-.0513-2.2531-.0513-.3333 0-1.0476-.1795-1.3333-.2821-.6667-.3333-.789-.4224-1-.6666-.3986-.4616-1-1.0257-1-1.6667 0-.8462 0-.5641 0-1.3333 0-.3847.6014-1.3662.6014-1.3662s.0653-.3005.3986-.6338l.6667-.3334s.7619-.3333 1-.3333c0 0 .3483.0256 1.1102.0256.619 0 1.2381-.0256 1.7143-.1025 1.1428-.1795 2.1904-.4616 2.9524-.9744.3809-.2564.5714-.5641.5714-.8461 0-.3077-.2381-.6154-.6667-.8206-.3333-.2051-.619-.4102-.9524-.6153-.5238-.2821-1.3333-.5385-1.9523-.7693-.4762-.1538-.9048-.3333-1.2858-.5128-.5714-.282-1.1428-.5897-1.6666-.8974-.7143-.4359-1.1429-.8718-1.6667-1.4872-.3333-.4359-.4286-.718-.4762-1.1795v-.1538c0-1.2308 1.4762-1.9744 2.8095-2.5129 1.7143-.7179 3.8096-.9487 6.6191-1.1025.6667-.0513 1.3809-.0513 2.0476-.0513 1.9524 0 4.4286 0 5.9048.5384.5238.4616.7619.5129.8571.7949l.2381.718c0 .282 0 .4871.0476.9487.0476.2564.0476.3846.0476.641 0 .4616-.0476.5186-.3333.6923l-.3333.3334c-.6667.3333-1.3334.6666-1.6667.6666-.3809 0-1.6667.0769-3.0476.0769z" fill="#fff"/></g><g fill="#333"><path d="m153.039 33.3959c-1.336 0-2.516-.292-3.54-.876-1.024-.592-1.828-1.38-2.412-2.364-.576-.984-.864-2.064-.864-3.24 0-.856.164-1.672.492-2.448.336-.784.808-1.476 1.416-2.076.608-.608 1.328-1.084 2.16-1.428.832-.352 1.748-.528 2.748-.528 1.336 0 2.516.296 3.54.888 1.024.584 1.824 1.368 2.4 2.352s.864 2.064.864 3.24c0 .856-.164 1.676-.492 2.46-.328.776-.796 1.464-1.404 2.064s-1.328 1.076-2.16 1.428-1.748.528-2.748.528zm0-3.384c.56 0 1.064-.124 1.512-.372.448-.256.8-.616 1.056-1.08s.384-1.012.384-1.644c0-.64-.128-1.188-.384-1.644-.248-.464-.596-.82-1.044-1.068-.448-.256-.956-.384-1.524-.384s-1.076.128-1.524.384c-.448.248-.8.604-1.056 1.068-.256.456-.384 1.004-.384 1.644 0 .632.128 1.18.384 1.644.264.464.62.824 1.068 1.08.448.248.952.372 1.512.372z"/><path d="m137.043 33.3959c-1.16 0-2.2-.268-3.12-.804-.92-.544-1.644-1.3-2.172-2.268-.528-.976-.792-2.112-.792-3.408 0-.92.152-1.772.456-2.556s.728-1.468 1.272-2.052c.552-.592 1.204-1.052 1.956-1.38s1.576-.492 2.472-.492c.936 0 1.78.184 2.532.552s1.408.916 1.968 1.644l-.9.9v-7.776h3.936v17.28h-3.396v-3.18l.54.888c-.352.784-.94 1.424-1.764 1.92-.824.488-1.82.732-2.988.732zm.732-3.384c.56 0 1.064-.124 1.512-.372.448-.256.8-.616 1.056-1.08s.384-1.012.384-1.644c0-.64-.128-1.188-.384-1.644-.248-.464-.596-.82-1.044-1.068-.448-.256-.956-.384-1.524-.384s-1.076.128-1.524.384c-.448.248-.8.604-1.056 1.068-.256.456-.384 1.004-.384 1.644 0 .632.128 1.18.384 1.644.264.464.62.824 1.068 1.08.448.248.952.372 1.512.372z"/><path d="m122.75 27.9719v-3.444h7.056v3.444z"/><path d="m114.77 33.3959c-1.336 0-2.516-.292-3.54-.876-1.024-.592-1.828-1.38-2.412-2.364-.576-.984-.864-2.064-.864-3.24 0-.856.164-1.672.492-2.448.336-.784.808-1.476 1.416-2.076.608-.608 1.328-1.084 2.16-1.428.832-.352 1.748-.528 2.748-.528 1.336 0 2.516.296 3.54.888 1.024.584 1.824 1.368 2.4 2.352s.864 2.064.864 3.24c0 .856-.164 1.676-.492 2.46-.328.776-.796 1.464-1.404 2.064s-1.328 1.076-2.16 1.428-1.748.528-2.748.528zm0-3.384c.56 0 1.064-.124 1.512-.372.448-.256.8-.616 1.056-1.08s.384-1.012.384-1.644c0-.64-.128-1.188-.384-1.644-.248-.464-.596-.82-1.044-1.068-.448-.256-.956-.384-1.524-.384s-1.076.128-1.524.384c-.448.248-.8.604-1.056 1.068-.256.456-.384 1.004-.384 1.644 0 .632.128 1.18.384 1.644.264.464.62.824 1.068 1.08.448.248.952.372 1.512.372z"/><path d="m104.276 33.3959c-1.36 0-2.428-.38-3.204-1.14-.776-.768-1.1643-1.912-1.1643-3.432v-11.532h3.9363v3.504h2.868v3.12h-2.868v4.224c0 .656.144 1.116.432 1.38s.66.396 1.116.396c.248 0 .492-.028.732-.084.248-.064.476-.156.684-.276l.504 3.084c-.376.208-.828.384-1.356.528-.528.152-1.088.228-1.68.228zm-6.7443-9.48v-3.12h2.7363v3.12z"/><path d="m83.9243 33.3959c-1.16 0-2.2-.268-3.12-.804-.92-.544-1.644-1.3-2.172-2.268-.528-.976-.792-2.112-.792-3.408 0-.92.152-1.772.456-2.556s.728-1.468 1.272-2.052c.552-.592 1.204-1.052 1.956-1.38s1.576-.492 2.472-.492c.936 0 1.78.184 2.532.552s1.408.916 1.968 1.644l-.9.9v-7.776h3.936v17.28h-3.396v-3.18l.54.888c-.352.784-.94 1.424-1.764 1.92-.824.488-1.82.732-2.988.732zm.732-3.384c.56 0 1.064-.124 1.512-.372.448-.256.8-.616 1.056-1.08s.384-1.012.384-1.644c0-.64-.128-1.188-.384-1.644-.248-.464-.596-.82-1.044-1.068-.448-.256-.956-.384-1.524-.384s-1.076.128-1.524.384c-.448.248-.8.604-1.056 1.068-.256.456-.384 1.004-.384 1.644 0 .632.128 1.18.384 1.644.264.464.62.824 1.068 1.08.448.248.952.372 1.512.372z"/><path d="m72.3132 33.0359v-12.24h3.936v12.24zm1.968-14.052c-.632 0-1.184-.196-1.656-.588-.464-.4-.696-.932-.696-1.596 0-.68.232-1.216.696-1.608.472-.392 1.024-.588 1.656-.588.64 0 1.192.196 1.656.588s.696.928.696 1.608c0 .664-.232 1.196-.696 1.596-.464.392-1.016.588-1.656.588z"/><path d="m65.8145 33.0359v-17.28h3.936v17.28z"/><path d="m57.4225 33.3959c-1.272 0-2.508-.188-3.708-.564s-2.216-.92-3.048-1.632l1.872-2.976c.352.376.8.7 1.344.972s1.124.484 1.74.636c.624.144 1.228.216 1.812.216.824 0 1.492-.136 2.004-.408.52-.28.78-.684.78-1.212 0-.432-.188-.796-.564-1.092-.368-.296-1.06-.58-2.076-.852l-1.44-.408c-1.728-.48-2.972-1.136-3.732-1.968s-1.14-1.832-1.14-3c0-.752.16-1.444.48-2.076.32-.64.768-1.192 1.344-1.656.576-.472 1.252-.836 2.028-1.092.784-.264 1.636-.396 2.556-.396 1.272 0 2.452.188 3.54.564 1.096.368 1.976.872 2.64 1.512l-1.944 2.88c-.304-.32-.68-.6-1.128-.84s-.936-.428-1.464-.564-1.06-.204-1.596-.204c-.528 0-.988.068-1.38.204s-.7.332-.924.588c-.216.248-.324.544-.324.888 0 .28.08.516.24.708.168.184.444.36.828.528.392.168.92.352 1.584.552l1.464.432c1.72.504 2.964 1.136 3.732 1.896s1.152 1.748 1.152 2.964c0 1.064-.272 2.004-.816 2.82-.544.808-1.316 1.44-2.316 1.896-.992.456-2.172.684-3.54.684z"/></g></svg>

<svg width="279" height="54" viewBox="0 0 279 54" fill="none" xmlns="http://www.w3.org/2000/svg">
<g filter="url(#filter0_d_13460_64256)">
<rect x="10.6665" y="8" width="32" height="32" rx="8" fill="#FF8442"/>
<path d="M30.8718 20.0769H30.4432C29.8718 20.0769 29.3004 20.1282 28.7289 20.2564C28.1575 20.4103 27.7766 20.6667 27.6337 21.0257C27.5861 21.1282 27.5861 21.2308 27.5861 21.3334C27.5861 21.6923 27.8718 22 28.3004 22.2821C28.6337 22.4872 29.0623 22.6923 29.4432 22.8975C30.1099 23.3077 31.7766 23.5898 32.4908 23.9487C33.2527 24.3077 33.9194 24.6923 34.6337 25.0769C35.348 25.4872 35.6813 26 35.9194 26.5128C36.1099 26.9231 36.2051 27.3077 36.2051 27.718C36.2051 27.9744 36.1575 28.2564 36.0623 28.5128C35.967 29.1539 35.4432 29.6923 35.0623 30.2308C34.7766 30.5641 34.348 30.8462 34.0146 31.1795C33.9194 31.3077 33.6813 31.4103 33.4908 31.5385C33.0146 31.8205 32.4908 32.0769 31.8718 32.2821C31.8242 32.3077 31.7289 32.3334 31.6337 32.359C29.8242 32.8205 27.967 33.1539 25.348 33.2821C24.7766 33.3077 23.8718 33.3334 23.2051 33.3334H22.9194C21.7289 33.3334 21.5711 33.2821 20.6663 33.2821C20.333 33.2821 19.6187 33.1026 19.333 33C18.6663 32.6667 18.544 32.5776 18.333 32.3334C17.9344 31.8718 17.333 31.3077 17.333 30.6667C17.333 29.8205 17.333 30.1026 17.333 29.3334C17.333 28.9487 17.9344 27.9672 17.9344 27.9672C17.9344 27.9672 17.9997 27.6667 18.333 27.3334L18.9997 27C18.9997 27 19.7616 26.6667 19.9997 26.6667C19.9997 26.6667 20.348 26.6923 21.1099 26.6923C21.7289 26.6923 22.348 26.6667 22.8242 26.5898C23.967 26.4103 25.0146 26.1282 25.7766 25.6154C26.1575 25.359 26.348 25.0513 26.348 24.7693C26.348 24.4616 26.1099 24.1539 25.6813 23.9487C25.348 23.7436 25.0623 23.5385 24.7289 23.3334C24.2051 23.0513 23.3956 22.7949 22.7766 22.5641C22.3004 22.4103 21.8718 22.2308 21.4908 22.0513C20.9194 21.7693 20.348 21.4616 19.8242 21.1539C19.1099 20.718 18.6813 20.2821 18.1575 19.6667C17.8242 19.2308 17.7289 18.9487 17.6813 18.4872V18.3334C17.6813 17.1026 19.1575 16.359 20.4908 15.8205C22.2051 15.1026 24.3004 14.8718 27.1099 14.718C27.7766 14.6667 28.4908 14.6667 29.1575 14.6667C31.1099 14.6667 33.5861 14.6667 35.0623 15.2051C35.5861 15.6667 35.8242 15.718 35.9194 16L36.1575 16.718C36.1575 17 36.1575 17.2051 36.2051 17.6667C36.2527 17.9231 36.2527 18.0513 36.2527 18.3077C36.2527 18.7693 36.2051 18.8263 35.9194 19L35.5861 19.3334C34.9194 19.6667 34.2527 20 33.9194 20C33.5385 20 32.2527 20.0769 30.8718 20.0769Z" fill="white"/>
</g>
<path d="M153.039 33.3959C151.703 33.3959 150.523 33.1039 149.499 32.5199C148.475 31.9279 147.671 31.1399 147.087 30.1559C146.511 29.1719 146.223 28.0919 146.223 26.9159C146.223 26.0599 146.387 25.2439 146.715 24.4679C147.051 23.6839 147.523 22.9919 148.131 22.3919C148.739 21.7839 149.459 21.3079 150.291 20.9639C151.123 20.6119 152.039 20.4359 153.039 20.4359C154.375 20.4359 155.555 20.7319 156.579 21.3239C157.603 21.9079 158.403 22.6919 158.979 23.6759C159.555 24.6599 159.843 25.7399 159.843 26.9159C159.843 27.7719 159.679 28.5919 159.351 29.3759C159.023 30.1519 158.555 30.8399 157.947 31.4399C157.339 32.0399 156.619 32.5159 155.787 32.8679C154.955 33.2199 154.039 33.3959 153.039 33.3959ZM153.039 30.0119C153.599 30.0119 154.103 29.8879 154.551 29.6399C154.999 29.3839 155.351 29.0239 155.607 28.5599C155.863 28.0959 155.991 27.5479 155.991 26.9159C155.991 26.2759 155.863 25.7279 155.607 25.2719C155.359 24.8079 155.011 24.4519 154.563 24.2039C154.115 23.9479 153.607 23.8199 153.039 23.8199C152.471 23.8199 151.963 23.9479 151.515 24.2039C151.067 24.4519 150.715 24.8079 150.459 25.2719C150.203 25.7279 150.075 26.2759 150.075 26.9159C150.075 27.5479 150.203 28.0959 150.459 28.5599C150.723 29.0239 151.079 29.3839 151.527 29.6399C151.975 29.8879 152.479 30.0119 153.039 30.0119Z" fill="#333333"/>
<path d="M137.043 33.3959C135.883 33.3959 134.843 33.1279 133.923 32.5919C133.003 32.0479 132.279 31.2919 131.751 30.3239C131.223 29.3479 130.959 28.2119 130.959 26.9159C130.959 25.9959 131.111 25.1439 131.415 24.3599C131.719 23.5759 132.143 22.8919 132.687 22.3079C133.239 21.7159 133.891 21.2559 134.643 20.9279C135.395 20.5999 136.219 20.4359 137.115 20.4359C138.051 20.4359 138.895 20.6199 139.647 20.9879C140.399 21.3559 141.055 21.9039 141.615 22.6319L140.715 23.5319V15.7559H144.651V33.0359H141.255V29.8559L141.795 30.7439C141.443 31.5279 140.855 32.1679 140.031 32.6639C139.207 33.1519 138.211 33.3959 137.043 33.3959ZM137.775 30.0119C138.335 30.0119 138.839 29.8879 139.287 29.6399C139.735 29.3839 140.087 29.0239 140.343 28.5599C140.599 28.0959 140.727 27.5479 140.727 26.9159C140.727 26.2759 140.599 25.7279 140.343 25.2719C140.095 24.8079 139.747 24.4519 139.299 24.2039C138.851 23.9479 138.343 23.8199 137.775 23.8199C137.207 23.8199 136.699 23.9479 136.251 24.2039C135.803 24.4519 135.451 24.8079 135.195 25.2719C134.939 25.7279 134.811 26.2759 134.811 26.9159C134.811 27.5479 134.939 28.0959 135.195 28.5599C135.459 29.0239 135.815 29.3839 136.263 29.6399C136.711 29.8879 137.215 30.0119 137.775 30.0119Z" fill="#333333"/>
<path d="M122.75 27.9719V24.5279H129.806V27.9719H122.75Z" fill="#333333"/>
<path d="M114.77 33.3959C113.434 33.3959 112.254 33.1039 111.23 32.5199C110.206 31.9279 109.402 31.1399 108.818 30.1559C108.242 29.1719 107.954 28.0919 107.954 26.9159C107.954 26.0599 108.118 25.2439 108.446 24.4679C108.782 23.6839 109.254 22.9919 109.862 22.3919C110.47 21.7839 111.19 21.3079 112.022 20.9639C112.854 20.6119 113.77 20.4359 114.77 20.4359C116.106 20.4359 117.286 20.7319 118.31 21.3239C119.334 21.9079 120.134 22.6919 120.71 23.6759C121.286 24.6599 121.574 25.7399 121.574 26.9159C121.574 27.7719 121.41 28.5919 121.082 29.3759C120.754 30.1519 120.286 30.8399 119.678 31.4399C119.07 32.0399 118.35 32.5159 117.518 32.8679C116.686 33.2199 115.77 33.3959 114.77 33.3959ZM114.77 30.0119C115.33 30.0119 115.834 29.8879 116.282 29.6399C116.73 29.3839 117.082 29.0239 117.338 28.5599C117.594 28.0959 117.722 27.5479 117.722 26.9159C117.722 26.2759 117.594 25.7279 117.338 25.2719C117.09 24.8079 116.742 24.4519 116.294 24.2039C115.846 23.9479 115.338 23.8199 114.77 23.8199C114.202 23.8199 113.694 23.9479 113.246 24.2039C112.798 24.4519 112.446 24.8079 112.19 25.2719C111.934 25.7279 111.806 26.2759 111.806 26.9159C111.806 27.5479 111.934 28.0959 112.19 28.5599C112.454 29.0239 112.81 29.3839 113.258 29.6399C113.706 29.8879 114.21 30.0119 114.77 30.0119Z" fill="#333333"/>
<path d="M104.276 33.3959C102.916 33.3959 101.848 33.0159 101.072 32.2559C100.296 31.4879 99.9077 30.3439 99.9077 28.8239V17.2919H103.844V20.7959H106.712V23.9159H103.844V28.1399C103.844 28.7959 103.988 29.2559 104.276 29.5199C104.564 29.7839 104.936 29.9159 105.392 29.9159C105.64 29.9159 105.884 29.8879 106.124 29.8319C106.372 29.7679 106.6 29.6759 106.808 29.5559L107.312 32.6399C106.936 32.8479 106.484 33.0239 105.956 33.1679C105.428 33.3199 104.868 33.3959 104.276 33.3959ZM97.5317 23.9159V20.7959H100.268V23.9159H97.5317Z" fill="#333333"/>
<path d="M83.9243 33.3959C82.7643 33.3959 81.7243 33.1279 80.8043 32.5919C79.8843 32.0479 79.1603 31.2919 78.6323 30.3239C78.1043 29.3479 77.8403 28.2119 77.8403 26.9159C77.8403 25.9959 77.9923 25.1439 78.2963 24.3599C78.6003 23.5759 79.0243 22.8919 79.5683 22.3079C80.1203 21.7159 80.7723 21.2559 81.5243 20.9279C82.2763 20.5999 83.1003 20.4359 83.9963 20.4359C84.9323 20.4359 85.7763 20.6199 86.5283 20.9879C87.2803 21.3559 87.9363 21.9039 88.4963 22.6319L87.5963 23.5319V15.7559H91.5323V33.0359H88.1363V29.8559L88.6763 30.7439C88.3243 31.5279 87.7363 32.1679 86.9123 32.6639C86.0883 33.1519 85.0923 33.3959 83.9243 33.3959ZM84.6563 30.0119C85.2163 30.0119 85.7203 29.8879 86.1683 29.6399C86.6163 29.3839 86.9683 29.0239 87.2243 28.5599C87.4803 28.0959 87.6083 27.5479 87.6083 26.9159C87.6083 26.2759 87.4803 25.7279 87.2243 25.2719C86.9763 24.8079 86.6283 24.4519 86.1803 24.2039C85.7323 23.9479 85.2243 23.8199 84.6563 23.8199C84.0883 23.8199 83.5803 23.9479 83.1323 24.2039C82.6843 24.4519 82.3323 24.8079 82.0763 25.2719C81.8203 25.7279 81.6923 26.2759 81.6923 26.9159C81.6923 27.5479 81.8203 28.0959 82.0763 28.5599C82.3403 29.0239 82.6963 29.3839 83.1443 29.6399C83.5923 29.8879 84.0963 30.0119 84.6563 30.0119Z" fill="#333333"/>
<path d="M72.3132 33.0359V20.7959H76.2492V33.0359H72.3132ZM74.2812 18.9839C73.6492 18.9839 73.0972 18.7879 72.6252 18.3959C72.1612 17.9959 71.9292 17.4639 71.9292 16.7999C71.9292 16.1199 72.1612 15.5839 72.6252 15.1919C73.0972 14.7999 73.6492 14.6039 74.2812 14.6039C74.9212 14.6039 75.4732 14.7999 75.9372 15.1919C76.4012 15.5839 76.6332 16.1199 76.6332 16.7999C76.6332 17.4639 76.4012 17.9959 75.9372 18.3959C75.4732 18.7879 74.9212 18.9839 74.2812 18.9839Z" fill="#333333"/>
<path d="M65.8145 33.0359V15.7559H69.7505V33.0359H65.8145Z" fill="#333333"/>
<path d="M57.4225 33.3959C56.1505 33.3959 54.9145 33.2079 53.7145 32.8319C52.5145 32.4559 51.4985 31.9119 50.6665 31.1999L52.5385 28.2239C52.8905 28.5999 53.3385 28.9239 53.8825 29.1959C54.4265 29.4679 55.0065 29.6799 55.6225 29.8319C56.2465 29.9759 56.8505 30.0479 57.4345 30.0479C58.2585 30.0479 58.9265 29.9119 59.4385 29.6399C59.9585 29.3599 60.2185 28.9559 60.2185 28.4279C60.2185 27.9959 60.0305 27.6319 59.6545 27.3359C59.2865 27.0399 58.5945 26.7559 57.5785 26.4839L56.1385 26.0759C54.4105 25.5959 53.1665 24.9399 52.4065 24.1079C51.6465 23.2759 51.2665 22.2759 51.2665 21.1079C51.2665 20.3559 51.4265 19.6639 51.7465 19.0319C52.0665 18.3919 52.5145 17.8399 53.0905 17.3759C53.6665 16.9039 54.3425 16.5399 55.1185 16.2839C55.9025 16.0199 56.7545 15.8879 57.6745 15.8879C58.9465 15.8879 60.1265 16.0759 61.2145 16.4519C62.3105 16.8199 63.1905 17.3239 63.8545 17.9639L61.9105 20.8439C61.6065 20.5239 61.2305 20.2439 60.7825 20.0039C60.3345 19.7639 59.8465 19.5759 59.3185 19.4399C58.7905 19.3039 58.2585 19.2359 57.7225 19.2359C57.1945 19.2359 56.7345 19.3039 56.3425 19.4399C55.9505 19.5759 55.6425 19.7719 55.4185 20.0279C55.2025 20.2759 55.0945 20.5719 55.0945 20.9159C55.0945 21.1959 55.1745 21.4319 55.3345 21.6239C55.5025 21.8079 55.7785 21.9839 56.1625 22.1519C56.5545 22.3199 57.0825 22.5039 57.7465 22.7039L59.2105 23.1359C60.9305 23.6399 62.1745 24.2719 62.9425 25.0319C63.7105 25.7919 64.0945 26.7799 64.0945 27.9959C64.0945 29.0599 63.8225 29.9999 63.2785 30.8159C62.7345 31.6239 61.9625 32.2559 60.9625 32.7119C59.9705 33.1679 58.7905 33.3959 57.4225 33.3959Z" fill="#333333"/>
<defs>
<filter id="filter0_d_13460_64256" x="-0.000163078" y="-2.38419e-07" width="53.3333" height="53.3333" filterUnits="userSpaceOnUse" color-interpolation-filters="sRGB">
<feFlood flood-opacity="0" result="BackgroundImageFix"/>
<feColorMatrix in="SourceAlpha" type="matrix" values="0 0 0 0 0 0 0 0 0 0 0 0 0 0 0 0 0 0 127 0" result="hardAlpha"/>
<feOffset dy="2.66667"/>
<feGaussianBlur stdDeviation="5.33333"/>
<feComposite in2="hardAlpha" operator="out"/>
<feColorMatrix type="matrix" values="0 0 0 0 1 0 0 0 0 0.619006 0 0 0 0 0.348077 0 0 0 0.2 0"/>
<feBlend mode="normal" in2="BackgroundImageFix" result="effect1_dropShadow_13460_64256"/>
<feBlend mode="normal" in="SourceGraphic" in2="effect1_dropShadow_13460_64256" result="shape"/>
</filter>
</defs>
</svg>
